components/2.0/icon/icons/icon-table-grid-22px.svg

<svg width="22" height="22" xmlns="http://www.w3.org/2000/svg"><path d="M13 9H9v4h4V9zm1 0h4v4h-4V9zm-1 9H9v-4h4v4zm1 0h4v-4h-4v4zM13 4H9v4h4V4zm1 0h4v4h-4V4zM8 9H4v4h4V9zm0 9H4v-4h4v4zM8 4H4v4h4V4zM2 2h18v18H2V2z" fill="#3C4751" fill-rule="evenodd"/></svg>

<?xml version="1.0" encoding="UTF-8" standalone="no"?>
<svg width="22px" height="22px" viewBox="0 0 22 22" version="1.1" xmlns="http://www.w3.org/2000/svg" xmlns:xlink="http://www.w3.org/1999/xlink" xmlns:sketch="http://www.bohemiancoding.com/sketch/ns">
    <!-- Generator: Sketch 3.4.4 (17249) - http://www.bohemiancoding.com/sketch -->
    <title>icon-table-grid-22px</title>
    <desc>Created with Sketch.</desc>
    <defs></defs>
    <g id="22px" stroke="none" stroke-width="1" fill="none" fill-rule="evenodd" sketch:type="MSPage">
        <g id="icon-table-grid-22px" sketch:type="MSArtboardGroup" fill="#3C4751">
            <path d="M13,9 L9,9 L9,13 L13,13 L13,9 Z M14,9 L18,9 L18,13 L14,13 L14,9 Z M13,18 L9,18 L9,14 L13,14 L13,18 Z M14,18 L18,18 L18,14 L14,14 L14,18 Z M13,4 L9,4 L9,8 L13,8 L13,4 Z M14,4 L18,4 L18,8 L14,8 L14,4 Z M8,9 L4,9 L4,13 L8,13 L8,9 Z M8,18 L4,18 L4,14 L8,14 L8,18 Z M8,4 L4,4 L4,8 L8,8 L8,4 Z M2,2 L20,2 L20,20 L2,20 L2,2 Z" id="grid" sketch:type="MSShapeGroup"></path>
        </g>
    </g>
</svg>
